editor/icons/MeshTexture.svg

<svg height="16" viewBox="0 0 16 16" width="16" xmlns="http://www.w3.org/2000/svg"><path d="m3 1c-1.1046 0-2 .89543-2 2 .0005649.71397.38169 1.3735 1 1.7305v6.541c-.61771.35663-.99874 1.0152-1 1.7285 0 1.1046.89543 2 2 2 .71397-.000565 1.3735-.38169 1.7305-1h6.541c.35663.61771 1.0152.99874 1.7285 1 1.1046 0 2-.89543 2-2 .000101-.72747-.39481-1.3976-1.0312-1.75h.03125v-6.5215c.61771-.35663.99874-1.0152 1-1.7285 0-1.1046-.89543-2-2-2-.71397.0005648-1.3735.38169-1.7305 1h-6.541c-.35663-.61771-1.0152-.99874-1.7285-1zm1.7266 3h.6875 5.168.68945c.17478.30301.42598.55488.72852.73047v.68359 5.1719.68555c-.30301.17478-.55488.42598-.73047.72852h-.68359-5.1719-.68555c-.17478-.30301-.42598-.55488-.72852-.73047v-.6875l-.0039062.003907v-5.8574c.30302-.17478.55488-.42598.73047-.72852zm4.0859 2.25v.70117h-.8125v.69922h-1.625v.69922h-.8125v.69922h-.8125v.70117h1.625 1.625 1.625 1.625v-1.4004h-.8125v-1.3984h-.8125v-.70117h-.8125z" fill="#e0e0e0"/></svg>

<svg height="16" viewBox="0 0 16 16" width="16" xmlns="http://www.w3.org/2000/svg"><path d="M4.729 2A2 2 0 1 0 2 4.73v6.541A2 2 0 1 0 4.73 14h6.541a2 2 0 1 0 2.698-2.75H14V4.729A2 2 0 1 0 11.27 2H4.729zm6.542 2a2 2 0 0 0 .729.729v6.542a2 2 0 0 0-.729.729H4.729A2 2 0 0 0 4 11.271V4.729A2 2 0 0 0 4.729 4zM8.812 6.25v.701H8v.7H6.375v.699h-.813v.699H4.75v.701h6.5v-1.4h-.813v-1.4h-.812v-.7h-.813z" fill="#e0e0e0"/></svg>
